public/img/svg/target_symbol.svg

<?xml version="1.0" standalone="no"?><!-- Generator: Gravit.io --><svg xmlns="http://www.w3.org/2000/svg" xmlns:xlink="http://www.w3.org/1999/xlink" style="isolation:isolate" viewBox="0 0 24 24" width="24" height="24"><defs><clipPath id="_clipPath_rE56spb7q0VxlfN95TDiBII2QPsmsdhH"><rect width="24" height="24"/></clipPath></defs><g clip-path="url(#_clipPath_rE56spb7q0VxlfN95TDiBII2QPsmsdhH)"><path d=" M 3 12 C 3 7.033 7.033 3 12 3 C 16.967 3 21 7.033 21 12 C 21 16.967 16.967 21 12 21 C 7.033 21 3 16.967 3 12 Z " fill-rule="evenodd" fill="rgb(33,33,33)"/><path d=" M 9.471 5.471 L 11 7 L 13 7 L 14.529 5.471 C 14.283 5.376 14.031 5.294 13.773 5.227 L 13 6 L 12 5 L 11 6 L 10.227 5.227 C 9.969 5.294 9.717 5.376 9.471 5.471 Z  M 11 8 L 9 11 L 15 11 L 13 8 L 11 8 Z  M 9 13 L 15 13 L 15 12 L 9 12 L 9 13 Z  M 12 18 L 15 14 L 9 14 L 12 18 Z  M 10.947 18.921 L 7 13 L 8 17 L 6 15 L 6.247 15.986 C 7.321 17.534 9.004 18.628 10.947 18.921 Z  M 17.753 15.986 L 18 15 L 16 17 L 17 13 L 13.053 18.921 C 14.996 18.628 16.679 17.534 17.753 15.986 Z " fill-rule="evenodd" fill="rgb(255,255,255)"/></g></svg>

<svg xmlns="http://www.w3.org/2000/svg" style="isolation:isolate" width="24" height="24"><defs><clipPath id="a"><path d="M0 0h24v24H0z"/></clipPath></defs><g clip-path="url(#a)" fill-rule="evenodd"><path d="M3 12a9 9 0 1 1 18 0 9 9 0 0 1-18 0z" fill="#212121"/><path d="M9.47 5.47L11 7h2l1.53-1.53c-.25-.1-.5-.18-.76-.24L13 6l-1-1-1 1-.77-.77c-.26.06-.51.15-.76.24zM11 8l-2 3h6l-2-3h-2zm-2 5h6v-1H9v1zm3 5l3-4H9l3 4zm-1.05.92L7 13l1 4-2-2 .25.99a7 7 0 0 0 4.7 2.93zm6.8-2.93L18 15l-2 2 1-4-3.95 5.92a7 7 0 0 0 4.7-2.93z" fill="#FFF"/></g></svg>
